icons/zodiac-virgo.svg

<svg width="24" height="24" viewBox="0 0 24 24" fill="none" xmlns="http://www.w3.org/2000/svg">
<path fill-rule="evenodd" clip-rule="evenodd" d="M2 4C2 3.44772 2.44772 3 3 3C3.73983 3 4.45148 3.27328 5 3.76393C5.54852 3.27328 6.26017 3 7 3C7.73983 3 8.45148 3.27328 9 3.76393C9.54852 3.27328 10.2602 3 11 3C11.7956 3 12.5587 3.31607 13.1213 3.87868C13.6839 4.44129 14 5.20435 14 6V10.5359C14.6029 10.1878 15.2918 10 16 10C17.0609 10 18.0783 10.4214 18.8284 11.1716C19.5786 11.9217 20 12.9391 20 14V16C20 17.4523 19.3178 18.7823 18.1963 19.8109C18.7721 19.9345 19.3793 20 20 20C20.5523 20 21 20.4477 21 21C21 21.5523 20.5523 22 20 22C18.5938 22 17.2135 21.7255 16 21.2047C14.7865 21.7255 13.4062 22 12 22C11.4477 22 11 21.5523 11 21C11 20.4477 11.4477 20 12 20C12.6207 20 13.2279 19.9345 13.8037 19.8109C12.6822 18.7823 12 17.4522 12 16V6C12 5.73478 11.8946 5.48043 11.7071 5.29289C11.5196 5.10536 11.2652 5 11 5C10.7348 5 10.4804 5.10536 10.2929 5.29289C10.1054 5.48043 10 5.73478 10 6V15C10 15.5523 9.55228 16 9 16C8.44772 16 8 15.5523 8 15V6C8 5.73478 7.89464 5.48043 7.70711 5.29289C7.51957 5.10536 7.26522 5 7 5C6.73478 5 6.48043 5.10536 6.29289 5.29289C6.10536 5.48043 6 5.73478 6 6V15C6 15.5523 5.55228 16 5 16C4.44772 16 4 15.5523 4 15V6C4 5.73478 3.89464 5.48043 3.70711 5.29289C3.51957 5.10536 3.26522 5 3 5C2.44772 5 2 4.55228 2 4ZM14 14V16C14 16.9315 14.5173 17.9259 15.6315 18.7218C15.7492 18.8059 15.8721 18.8866 16 18.9637C16.1278 18.8866 16.2508 18.8059 16.3685 18.7218C17.4827 17.9259 18 16.9315 18 16V14C18 13.4696 17.7893 12.9609 17.4142 12.5858C17.0391 12.2107 16.5304 12 16 12C15.4696 12 14.9609 12.2107 14.5858 12.5858C14.2107 12.9609 14 13.4696 14 14Z" fill="black"/>
</svg>

<svg
  width="24"
  height="24"
  viewBox="0 0 24 24"
  xmlns="http://www.w3.org/2000/svg"
>
  <path
    fill-rule="evenodd"
    clip-rule="evenodd"
    d="M2 4a1 1 0 0 1 1-1 3 3 0 0 1 2 .764 3 3 0 0 1 4 0A3 3 0 0 1 14 6v4.536A4 4 0 0 1 20 14v2c0 1.452-.682 2.782-1.804 3.81.576.125 1.183.19 1.804.19a1 1 0 1 1 0 2c-1.406 0-2.787-.274-4-.795-1.213.52-2.594.795-4 .795a1 1 0 1 1 0-2c.62 0 1.228-.066 1.804-.19C12.682 18.783 12 17.453 12 16V6a1 1 0 0 0-2 0v9a1 1 0 1 1-2 0V6a1 1 0 0 0-2 0v9a1 1 0 1 1-2 0V6a1 1 0 0 0-1-1 1 1 0 0 1-1-1zm12 10v2c0 .931.517 1.926 1.632 2.722.117.084.24.165.368.242.128-.077.25-.158.369-.242C17.483 17.926 18 16.932 18 16v-2a2 2 0 0 0-4 0z"
  />
</svg>
